storage/app/icons/phosphoricons/light/file-audio-light.svg

<svg xmlns="http://www.w3.org/2000/svg" fill="currentColor" viewBox="0 0 256 256"><path d="M98.3 130.46a6 6 0 0 0-6.54 1.3L69.51 154H48a6 6 0 0 0-6 6v40a6 6 0 0 0 6 6h21.51l22.25 22.24A6 6 0 0 0 102 224v-88a6 6 0 0 0-3.7-5.54m-8.3 79-13.76-13.7A6 6 0 0 0 72 194H54v-28h18a6 6 0 0 0 4.24-1.76L90 150.49ZM150 180a38.53 38.53 0 0 1-19 33.18 6 6 0 0 1-6-10.36 26.5 26.5 0 0 0 0-45.64 6 6 0 0 1 6-10.36A38.53 38.53 0 0 1 150 180m62.24-96.24-56-56A6 6 0 0 0 152 26H56a14 14 0 0 0-14 14v80a6 6 0 0 0 12 0V40a2 2 0 0 1 2-2h90v50a6 6 0 0 0 6 6h50v122a2 2 0 0 1-2 2h-32a6 6 0 0 0 0 12h32a14 14 0 0 0 14-14V88a6 6 0 0 0-1.76-4.24M158 46.48 193.52 82H158Z"/></svg>

<svg xmlns="http://www.w3.org/2000/svg" viewBox="0 0 256 256" fill="currentColor"><path d="M98.3,130.46a6,6,0,0,0-6.54,1.3L69.51,154H48a6,6,0,0,0-6,6v40a6,6,0,0,0,6,6H69.51l22.25,22.24A6,6,0,0,0,102,224V136A6,6,0,0,0,98.3,130.46Zm-8.3,79L76.24,195.76A6,6,0,0,0,72,194H54V166H72a6,6,0,0,0,4.24-1.76L90,150.49ZM150,180a38.53,38.53,0,0,1-19,33.18A6,6,0,0,1,125,202.82a26.5,26.5,0,0,0,0-45.64A6,6,0,0,1,131,146.82,38.53,38.53,0,0,1,150,180Zm62.24-96.24-56-56A6,6,0,0,0,152,26H56A14,14,0,0,0,42,40v80a6,6,0,0,0,12,0V40a2,2,0,0,1,2-2h90V88a6,6,0,0,0,6,6h50V216a2,2,0,0,1-2,2H168a6,6,0,0,0,0,12h32a14,14,0,0,0,14-14V88A6,6,0,0,0,212.24,83.76ZM158,46.48,193.52,82H158Z"/></svg>
